assets/icons/network/wireless/disabled.svg

<?xml version="1.0" encoding="UTF-8" standalone="no"?>
<svg viewBox="0 0 24 24" height="24" width="24" version="1.1" id="svg6" sodipodi:docname="disabled.svg" inkscape:version="1.2 (1:1.2.1+202207142221+cd75a1ee6d)"
   xmlns:inkscape="http://www.inkscape.org/namespaces/inkscape"
   xmlns:sodipodi="http://sodipodi.sourceforge.net/DTD/sodipodi-0.dtd"
   xmlns="http://www.w3.org/2000/svg"
   xmlns:svg="http://www.w3.org/2000/svg"
   xmlns:rdf="http://www.w3.org/1999/02/22-rdf-syntax-ns#"
   xmlns:cc="http://creativecommons.org/ns#"
   xmlns:dc="http://purl.org/dc/elements/1.1/">
   <metadata id="metadata12">
      <rdf:RDF>
         <cc:Work rdf:about="">
            <dc:format>image/svg+xml</dc:format>
            <dc:type rdf:resource="http://purl.org/dc/dcmitype/StillImage" />
         </cc:Work>
      </rdf:RDF>
   </metadata>
   <defs id="defs10" />
   <sodipodi:namedview pagecolor="#ffffff" bordercolor="#666666" borderopacity="1" objecttolerance="10" gridtolerance="10" guidetolerance="10" inkscape:pageopacity="0" inkscape:pageshadow="2" inkscape:window-width="1846" inkscape:window-height="1016" id="namedview8" showgrid="false" inkscape:zoom="27.5" inkscape:cx="7.3636364" inkscape:cy="12.672727" inkscape:window-x="0" inkscape:window-y="0" inkscape:window-maximized="1" inkscape:current-layer="svg6" inkscape:pagecheckerboard="0" inkscape:snap-page="true" inkscape:snap-grids="true" inkscape:showpageshadow="2" inkscape:deskcolor="#d1d1d1">
      <inkscape:grid type="xygrid" id="grid837" />
      <inkscape:grid type="xygrid" id="grid301" dotted="true" spacingx="0.5" spacingy="0.5" empspacing="10" />
   </sodipodi:namedview>
   <path id="path1857-3" style="color:#000000;fill:#808080;fill-opacity:1;-inkscape-stroke:none" d="M 4.1992188 3.8652344 L 3.3945312 4.4609375 L 5.1894531 6.7285156 C 3.4910549 7.6815951 2.6210938 8.6738281 2.6210938 8.6738281 L 2.3476562 8.9921875 L 12 20.789062 L 12.386719 20.316406 L 14.195312 18.105469 L 16.242188 20.691406 L 17.046875 20.095703 L 14.84375 17.3125 L 6.0976562 6.2636719 L 4.1992188 3.8652344 z M 12 5 C 10.05179 5 8.4019976 5.3631115 7.0546875 5.8613281 L 15.492188 16.519531 L 21.652344 8.9921875 L 21.378906 8.6738281 C 21.378906 8.6738281 18.194426 5 12 5 z " />
</svg>

<svg height="24" width="24" xmlns="http://www.w3.org/2000/svg"><path style="color:#000;fill:gray;fill-opacity:1;-inkscape-stroke:none" d="m4.2 3.865-.805.596 1.794 2.268c-1.698.953-2.568 1.945-2.568 1.945l-.273.318L12 20.79l.387-.473 1.808-2.21 2.047 2.585.805-.595-2.203-2.784L6.098 6.264 4.199 3.865zM12 5c-1.948 0-3.598.363-4.945.861l8.437 10.659 6.16-7.528-.273-.318S18.194 5 12 5z"/></svg>
